X:1
T:Conscience Stings
T:Conscience Stings
T:Barney E. Warren, pub.1911
T:Daniel S. Warner
T:PUBLIC DOMAIN
T:PUBLIC DOMAIN
C:Barney E. Warren, pub.1911
Z:Daniel S. Warner
Z:PUBLIC DOMAIN
%%score ( 1 2 ) 3
L:1/8
Q:1/4=100
M:4/4
K:Eb
V:1 treble nm="Treble"
V:2 treble 
V:3 bass nm="Bass"
V:1
 E3/2 [EF]/ | [EG]2 [EG]2 [EG]2 [EG]2 | [EA]4 [EG]2 [EG]3/2 [FA]/ | [GB]2 [Ge]2 [EB]2 [EG]2 | %4
w: 6.~Hope will|end, but con- science|nev- er, With thy|spir- it it will|
w: 2.~In thy|heart, O wretch- ed|sin- ner, Heav- en|placed that sen- ti-|
w: 3.~See the|pre- cious blood of|Je- sus, It will|purge thy con- science|
w: 4.~Oh, re-|mem- ber thou art|sin- ning ’Gainst the|ver- y love of|
w: 5.~Loud- er,|loud- er, con- science|cry- ing, Suf- fers|not thy soul to|
 [DF]6 | E3/2 [EF]/ | [EG]2 [EG]2 [EG]2 [EG]2 | [EA]4 [EG]2 [EG]3/2 [FA]/ | %8
w: fly;|Keep- tor-|ment, and chide the|ev- er, Where the|
w: nel,|Thee to|guard and keep for-|ev- er From the|
w: pure,|Then in|heav- en’s sweet ap-|prov- al, Peace will|
w: God;|Hence thy|guilt- y con- science,|sting- ing, Smites thee|
w: rest;|Near- er,|near- er, comes thy|dy- ing, Can you|
 [GB]2 [EG]2 [EG]2 [DF]2 | E6 ||"^Refrain" [EB]3/2 [EB]/ | [EA]2 [EA]2 [Ec]2 [Ec]2 | %12
w: worm shall nev- er|die.|Come, poor|sin- ner, lost and|
w: aw- ful road to|hell.|||
w: flow for- ev- er-|more.|||
w: with an an- gry|rod.|||
w: face the sol- emn|test?|||
 [EB]4 [Ge]2 [Ge]3/2 [Ge]/ | [Ad]2 [Ad]2 [Ac]2 [Ad]2 | [Ge]6 | [EG]3/2 [FA]/ | %16
w: sigh- ing, Do o-|bey that in- ner|voice;|Hark, it|
w: ||||
w: ||||
w: ||||
w: ||||
 [GB]2 [GB]2 [EG]2 [EG]2 | [EA]4 [EG]2 [EG]3/2 [EG]/ | [DF]2 [DF]2 [B,E]2 [B,D]2 | [B,E]6 |] %20
w: tells of Je- sus|dy- ing— Make His|love thy ho- ly|choice.|
w: ||||
w: ||||
w: ||||
w: ||||
V:2
 E3/2 z/ | x8 | x8 | x8 | x6 | E3/2 z/ | x8 | x8 | x8 | E6 || x2 | x8 | x8 | x8 | x6 | x2 | x8 | %17
 x8 | x8 | x6 |] %20
V:3
 [E,G,]3/2 [E,A,]/ | [E,B,]2 [E,B,]2 [E,B,]2 [E,B,]2 | [E,C]4 [E,B,]2 [E,B,]3/2 [E,B,]/ | %3
 [E,E]2 [E,B,]2 [G,B,]2 [E,B,]2 | [B,,B,]6 | [E,G,]3/2 [E,A,]/ | [E,B,]2 [E,B,]2 [E,B,]2 [E,B,]2 | %7
 [E,C]4 [E,B,]2 [E,B,]3/2 [E,B,]/ | [E,E]2 [E,B,]2 [B,,B,]2 [B,,A,]2 | [E,G,]6 || %10
 [E,G,]3/2 [E,G,]/ | [C,A,]2 [C,A,]2 [A,,A,]2 [A,,A,]2 | [E,G,]4 [E,B,]2 [E,B,]3/2 [E,B,]/ | %13
 [B,,B,]2 [B,,B,]2 [B,,B,]2 [B,,B,]2 | [E,B,]6 | [E,B,]3/2 [E,B,]/ | %16
 [E,E]2 [E,E]2 [E,B,]2 [E,B,]2 | [E,C]4 [E,B,]2 [E,B,]3/2 [E,B,]/ | %18
 [B,,A,]2 [B,,A,]2 [B,,G,]2 [B,,F,]2 | [E,G,]6 |] %20

